assets/images/avatars/user/custom-avatars/season-f1/helmet-ice400.svg

<svg width="52" height="52" viewBox="0 0 52 52" fill="none" xmlns="http://www.w3.org/2000/svg">
<g clip-path="url(#clip0_26_81651)">
<rect width="52" height="52" fill="#50EEF6"/>
<path d="M26 52C40.3594 52 52 40.3594 52 26C52 11.6406 40.3594 0 26 0C11.6406 0 0 11.6406 0 26C0 40.3594 11.6406 52 26 52Z" fill="#50EEF6"/>
<path d="M26 46.7669C37.4692 46.7669 46.7668 37.4693 46.7668 26.0002C46.7668 14.531 37.4692 5.2334 26 5.2334C14.5309 5.2334 5.23328 14.531 5.23328 26.0002C5.23328 37.4693 14.5309 46.7669 26 46.7669Z" fill="#50EEF6" stroke="#002140" stroke-width="0.65" stroke-miterlimit="10"/>
<path d="M16.9665 40.8139L16.9215 40.9454C16.8938 40.9351 16.8661 40.9247 16.8419 40.9143C15.9939 40.6028 15.1805 40.2082 14.4156 39.7271L14.3706 39.6821C13.6161 36.5879 13.0311 33.6425 12.8339 30.5586C13.3773 30.8874 14.1041 31.2474 15.0629 31.5727C15.364 31.6765 15.6893 31.7769 16.0389 31.8669L15.9973 32.0192C15.8485 35.4353 16.0942 37.6331 16.8972 40.6997C16.9076 40.7447 16.9319 40.7932 16.9665 40.8139Z" fill="#99F6FF"/>
<path d="M19.1539 12.4706C20.9537 10.9131 22.6704 9.90249 24.5083 9.30371C20.5626 12.398 18.7766 16.1914 17.2503 20.9677V21.1373C15.8381 21.1027 14.6199 21.1096 13.7303 21.1477V21.1338C14.7306 17.8077 16.5338 14.7411 19.1539 12.4706Z" fill="#99F6FF"/>
<path d="M36.9164 12.4187L36.6361 12.4949C33.7079 14.9557 31.614 18.3927 30.7729 22.1237L30.7106 22.4318C30.4476 22.3729 30.1707 22.321 29.8903 22.2726C28.4747 22.013 26.8861 21.8019 25.2524 21.6357C25.0966 21.6184 24.9409 21.6046 24.7852 21.5873L24.7921 21.5146C25.8373 16.7105 28.3916 12.5018 32.2162 9.41448L32.2439 9.3418C34.0056 9.98557 35.622 11.0481 36.9164 12.4187Z" fill="#99F6FF"/>
<path d="M29.0735 39.0932L29.212 39.3285C27.8829 40.1073 26.5123 40.796 25.0379 41.2321C24.6398 41.3498 24.2383 41.4467 23.8299 41.5229L23.7849 41.2979C23.1031 38.5532 22.9024 35.6874 23.1862 32.8701L23.1377 32.4374C25.5432 32.1536 27.6268 31.4129 29.1428 30.7207L29.1774 30.7968C28.6825 33.5311 28.6478 36.3485 29.0735 39.0932Z" fill="#99F6FF"/>
<path d="M39.2319 15.876C40.6025 18.7833 41.0248 22.1441 40.7064 25.3664C40.5506 26.9447 40.2668 28.4053 39.8965 29.8416L39.7926 29.8139C39.2457 30.8938 37.5948 32.2402 36.4388 31.8906C35.4593 31.593 34.9747 30.4958 34.7774 29.4921C34.3621 27.3738 34.6667 25.1795 35.1305 23.0751C35.7431 20.3166 36.7953 17.3989 39.1834 15.8967L39.2319 15.876Z" fill="#99F6FF"/>
<path d="M37.138 34.9054C37.5672 35.2481 37.4426 35.9818 37.2591 36.1895C37.0757 36.4006 36.8022 36.5079 36.5426 36.6118C32.2751 38.3319 30.1846 41.3708 25.6747 42.2949C24.2211 42.5926 22.847 42.7345 21.3621 42.6653C20.0192 42.6064 18.5483 42.3676 17.3265 41.6996C17.1604 41.6096 16.6723 41.3881 16.8419 40.9174C16.8661 40.9243 16.8938 40.9347 16.9215 40.9451C19.1193 41.7412 21.5317 41.9557 23.8299 41.5231C24.2383 41.447 24.6398 41.3501 25.0379 41.2324C26.5123 40.7963 27.8829 40.1075 29.212 39.3288C30.3403 38.6642 31.434 37.9408 32.5381 37.2451C33.9918 36.3279 35.5147 35.4488 37.1207 34.8535L37.138 34.9054Z" fill="#002140"/>
<path d="M32.7042 22.9266C32.7042 22.9266 32.7735 24.5118 32.635 25.7613L32.462 25.744L21.549 32.2578L21.5559 32.5555C20.843 32.5797 20.1092 32.5555 19.3581 32.4759C18.0602 32.334 16.963 32.1194 16.0389 31.8667C15.6893 31.7767 15.364 31.6763 15.0629 31.5725L15.0836 31.5171L29.8384 22.5632L29.8903 22.2725C30.1707 22.3209 30.4476 22.3728 30.7106 22.4317C31.4444 22.5805 32.1158 22.7466 32.7042 22.9266Z" fill="#CCF6FF"/>
<path d="M32.462 25.7441L32.6351 25.7614C32.6212 25.9172 32.6005 26.066 32.5762 26.2079C32.3651 27.4885 31.7663 29.278 31.7663 29.278C31.7663 29.278 30.7868 29.9702 29.1428 30.7212C27.6268 31.4135 25.5432 32.1542 23.1377 32.438C22.6255 32.5037 22.0959 32.5418 21.556 32.5556L21.5491 32.258L32.462 25.7441Z" fill="#002140"/>
<path d="M29.8903 22.2726L29.8384 22.5633L15.0836 31.5173L15.0629 31.5726C14.1041 31.2473 13.3773 30.8873 12.8339 30.5551C12.3355 30.2539 11.9894 29.9771 11.7644 29.7694L11.8959 29.7036L25.2421 21.7327L25.2524 21.6357C26.8861 21.8019 28.4747 22.013 29.8903 22.2726Z" fill="#002140"/>
<path d="M25.2524 21.6361L25.2421 21.733L11.8959 29.704L11.7644 29.7698C11.6536 29.6729 11.574 29.5932 11.5152 29.5344C11.3595 28.2192 11.3664 26.762 11.446 25.613H11.4702L18.5067 21.2208V21.1758C20.4518 21.245 22.6427 21.38 24.7852 21.5877C24.9409 21.605 25.0967 21.6188 25.2524 21.6361Z" fill="#CCF6FF"/>
<path d="M18.5102 21.1758V21.2207L11.4703 25.6129H11.446C11.453 25.4952 11.4599 25.381 11.4703 25.2703C11.5984 23.7785 12.0691 22.1172 12.2802 21.3073C12.4879 21.2311 12.9967 21.1792 13.7304 21.1481C14.6199 21.11 15.8382 21.1031 17.2469 21.1377C17.6519 21.1481 18.0741 21.1619 18.5102 21.1758Z" fill="#002140"/>
<path d="M13.7303 21.1334C14.7306 17.8072 16.5338 14.7407 19.1539 12.4702C20.9537 10.9127 22.6704 9.90202 24.5083 9.30325C25.2767 9.05058 26.0658 8.86714 26.8895 8.74946C28.6997 8.48642 30.5376 8.71832 32.2439 9.34132C34.0056 9.98509 35.622 11.0477 36.9164 12.4183C37.2314 12.754 37.529 13.1036 37.8025 13.4739C38.3632 14.2284 38.8374 15.0314 39.2319 15.8759C40.6025 18.7833 41.0248 22.144 40.7064 25.3663C40.5506 26.9446 40.2668 28.4052 39.8965 29.8416C39.5157 31.3264 39.0485 32.7939 38.5466 34.3514" stroke="#002140" stroke-width="0.65" stroke-linecap="round" stroke-linejoin="round"/>
<path d="M14.3706 39.6812C13.6161 36.5869 13.0311 33.6415 12.8339 30.5576" stroke="#002140" stroke-width="0.65" stroke-linecap="round" stroke-linejoin="round"/>
<path d="M14.4156 39.727C15.1806 40.2081 15.9939 40.6026 16.8419 40.9141C16.8661 40.9245 16.8938 40.9349 16.9215 40.9453C19.1193 41.7414 21.5317 41.9559 23.8299 41.5233C24.2383 41.4472 24.6398 41.3503 25.0378 41.2326C26.5123 40.7965 27.8829 40.1077 29.212 39.329C30.3403 38.6644 31.434 37.941 32.5381 37.2453C33.9918 36.3281 35.5147 35.449 37.1206 34.8537C37.5879 34.6772 38.0655 34.5284 38.5501 34.4072" stroke="#002140" stroke-width="0.65" stroke-linecap="round" stroke-linejoin="round"/>
<path d="M11.446 25.6119C11.4529 25.4943 11.4598 25.3801 11.4702 25.2693C11.5983 23.7775 12.069 22.1162 12.2801 21.3063C12.4878 21.2302 12.9966 21.1782 13.7303 21.1471C14.6198 21.109 15.8381 21.1021 17.2468 21.1367C17.6518 21.1471 18.074 21.1609 18.5101 21.1748C20.4518 21.244 22.6427 21.379 24.7852 21.5866C24.9409 21.604 25.0967 21.6178 25.2524 21.6351C26.8861 21.8012 28.4747 22.0124 29.8903 22.272C30.1707 22.3204 30.4476 22.3723 30.7106 22.4312C31.4444 22.58 32.1158 22.7461 32.7042 22.9261C32.7042 22.9261 32.7735 24.5113 32.635 25.7608C32.6212 25.9165 32.6004 26.0654 32.5762 26.2073C32.365 27.4879 31.7663 29.2773 31.7663 29.2773C31.7663 29.2773 30.7867 29.9695 29.1427 30.7206C27.6267 31.4128 25.5431 32.1535 23.1377 32.4373C22.6254 32.5031 22.0959 32.5411 21.5559 32.555C20.843 32.5792 20.1092 32.555 19.3581 32.4754C18.0602 32.3335 16.963 32.1189 16.0389 31.8662C15.6893 31.7762 15.364 31.6758 15.0629 31.572C14.1041 31.2467 13.3773 30.8867 12.8339 30.5544C12.3355 30.2533 11.9894 29.9764 11.7644 29.7688C11.6536 29.6719 11.574 29.5922 11.5152 29.5334C11.3595 28.2182 11.3664 26.761 11.446 25.6119Z" stroke="#002140" stroke-width="0.65" stroke-linecap="round" stroke-linejoin="round"/>
<path d="M16.8419 40.9173C16.6723 41.388 17.1604 41.6095 17.3265 41.6995C18.5483 42.3675 20.0192 42.6063 21.3621 42.6651C22.847 42.7343 24.2211 42.5924 25.6747 42.2948C30.1846 41.3707 32.2751 38.3318 36.5426 36.6116C36.8022 36.5078 37.0757 36.4005 37.2591 36.1893C37.4426 35.9817 37.5672 35.2479 37.138 34.9053" stroke="#002140" stroke-width="0.65" stroke-linecap="round" stroke-linejoin="round"/>
<path d="M39.1834 15.8965C36.7953 17.3986 35.7431 20.3164 35.1305 23.0749C34.6667 25.1792 34.3621 27.3736 34.7774 29.4918C34.9747 30.4955 35.4593 31.5927 36.4388 31.8904C37.5948 32.2399 39.2457 30.8936 39.7926 29.8137" stroke="#002140" stroke-width="0.65" stroke-linecap="round" stroke-linejoin="round"/>
<path d="M36.6361 12.4941C33.708 14.955 31.614 18.3919 30.7729 22.123" stroke="#002140" stroke-width="0.65" stroke-linecap="round" stroke-linejoin="round"/>
<path d="M29.1774 30.7969C28.6825 33.5312 28.6479 36.3485 29.0736 39.0932" stroke="#002140" stroke-width="0.65" stroke-linecap="round" stroke-linejoin="round"/>
<path d="M32.2162 9.41406C28.3917 12.5014 25.8374 16.7101 24.7921 21.5142" stroke="#002140" stroke-width="0.65" stroke-linecap="round" stroke-linejoin="round"/>
<path d="M23.1862 32.8701C22.9024 35.6875 23.1031 38.5533 23.7849 41.298" stroke="#002140" stroke-width="0.65" stroke-linecap="round" stroke-linejoin="round"/>
<path d="M24.5222 9.29297C24.5222 9.29297 24.5118 9.29989 24.5084 9.30335C20.5627 12.3976 18.7767 16.191 17.2504 20.9674C17.3784 20.9431 17.465 20.7943 17.42 20.6697" stroke="#002140" stroke-width="0.65" stroke-linecap="round" stroke-linejoin="round"/>
<path d="M15.9974 32.0186C15.8485 35.4347 16.0943 37.6325 16.8973 40.6991C16.9076 40.7441 16.9319 40.7925 16.9665 40.8133C16.9803 40.8202 16.9942 40.8237 17.0115 40.8237C17.0738 40.8202 17.0426 40.6921 17.0011 40.7371" stroke="#002140" stroke-width="0.65" stroke-linecap="round" stroke-linejoin="round"/>
</g>
<defs>
<clipPath id="clip0_26_81651">
<rect width="52" height="52" fill="white"/>
</clipPath>
</defs>
</svg>

<svg xmlns="http://www.w3.org/2000/svg" width="52" height="52" fill="none" viewBox="0 0 52 52"><g clip-path="url(#a)"><path fill="#50eef6" d="M0 0h52v52H0z"/><path fill="#50eef6" d="M26 52c14.36 0 26-11.64 26-26S40.36 0 26 0 0 11.64 0 26s11.64 26 26 26"/><path fill="#50eef6" stroke="#002140" stroke-miterlimit="10" stroke-width=".65" d="M26 46.767c11.47 0 20.767-9.298 20.767-20.767S37.469 5.233 26 5.233C14.53 5.233 5.233 14.531 5.233 26c0 11.47 9.298 20.767 20.767 20.767Z"/><path fill="#99f6ff" d="m16.967 40.814-.045.131-.08-.03a13 13 0 0 1-2.426-1.188l-.045-.045c-.755-3.094-1.34-6.04-1.537-9.123.543.328 1.27.688 2.229 1.014q.451.158.976.294l-.042.152c-.149 3.416.097 5.614.9 8.68.01.046.035.094.07.115m2.187-28.344c1.8-1.557 3.516-2.568 5.354-3.166-3.945 3.094-5.731 6.887-7.258 11.664v.17a55 55 0 0 0-3.52.01v-.014c1-3.326 2.804-6.393 5.424-8.663m17.762-.052-.28.076a17.8 17.8 0 0 0-5.863 9.629l-.062.308c-.263-.06-.54-.111-.82-.16a60 60 0 0 0-4.639-.636c-.155-.018-.311-.031-.467-.049l.007-.072c1.045-4.805 3.6-9.013 7.424-12.1l.028-.073a12.24 12.24 0 0 1 4.672 3.077m-7.842 26.674.138.235c-1.33.78-2.7 1.468-4.174 1.904q-.596.177-1.208.29l-.045-.224a24.8 24.8 0 0 1-.599-8.428l-.048-.433c2.405-.283 4.489-1.024 6.005-1.716l.034.076a25.1 25.1 0 0 0-.104 8.296m10.159-23.217c1.37 2.907 1.793 6.268 1.474 9.49a29 29 0 0 1-.81 4.476l-.103-.028c-.547 1.08-2.198 2.426-3.354 2.077-.98-.298-1.464-1.395-1.662-2.399-.415-2.118-.11-4.312.353-6.417.613-2.758 1.665-5.676 4.053-7.178z"/><path fill="#002140" d="M37.138 34.905c.43.343.305 1.077.121 1.285-.183.21-.457.318-.716.422-4.268 1.72-6.358 4.759-10.868 5.683-1.454.298-2.828.44-4.313.37-1.343-.059-2.814-.297-4.035-.965-.167-.09-.655-.312-.485-.783l.08.028c2.197.796 4.61 1.01 6.908.578q.612-.114 1.208-.29c1.474-.437 2.845-1.125 4.174-1.904 1.128-.665 2.222-1.388 3.326-2.084 1.454-.917 2.977-1.796 4.583-2.392z"/><path fill="#ccf6ff" d="M32.704 22.927s.07 1.585-.069 2.834l-.173-.017-10.913 6.514.007.297q-1.07.039-2.198-.08a21.4 21.4 0 0 1-3.32-.608q-.524-.136-.975-.294l.02-.056 14.755-8.954.052-.29c.28.048.558.1.82.159a22 22 0 0 1 1.994.495"/><path fill="#002140" d="m32.462 25.744.173.017a6 6 0 0 1-.059.447c-.21 1.28-.81 3.07-.81 3.07s-.98.692-2.623 1.443c-1.516.692-3.6 1.433-6.005 1.717q-.77.098-1.582.118l-.007-.298zm-2.572-3.471-.052.29-14.754 8.954-.021.056a11 11 0 0 1-2.23-1.018 6.6 6.6 0 0 1-1.069-.786l.132-.065 13.346-7.971.01-.097c1.634.166 3.223.377 4.638.637"/><path fill="#ccf6ff" d="m25.252 21.636-.01.097-13.346 7.971-.132.066c-.11-.097-.19-.177-.249-.236-.155-1.315-.149-2.772-.069-3.921h.024l7.037-4.392v-.045c1.945.069 4.136.204 6.278.412.156.017.312.03.467.048"/><path fill="#002140" d="M18.51 21.176v.045l-7.04 4.392h-.024q.01-.177.024-.343c.128-1.491.6-3.153.81-3.963.208-.076.717-.128 1.45-.159a55 55 0 0 1 3.517-.01q.608.016 1.263.038"/><path stroke="#002140" stroke-linecap="round" stroke-linejoin="round" stroke-width=".65" d="M13.73 21.133c1-3.326 2.804-6.392 5.424-8.663 1.8-1.557 3.516-2.568 5.354-3.167a14 14 0 0 1 2.382-.554c1.81-.263 3.648-.03 5.354.592a12.24 12.24 0 0 1 4.672 3.077q.474.502.887 1.056.838 1.133 1.429 2.402c1.37 2.907 1.793 6.268 1.474 9.49a29 29 0 0 1-.81 4.476c-.38 1.484-.848 2.952-1.35 4.51M14.37 39.681c-.754-3.094-1.339-6.04-1.536-9.123m1.582 9.169c.765.481 1.578.876 2.426 1.187l.08.031c2.197.796 4.61 1.01 6.908.578q.612-.114 1.208-.29c1.474-.436 2.845-1.125 4.174-1.904 1.128-.665 2.222-1.388 3.326-2.084 1.454-.917 2.977-1.796 4.583-2.391q.7-.266 1.43-.447"/><path stroke="#002140" stroke-linecap="round" stroke-linejoin="round" stroke-width=".65" d="M11.446 25.612q.01-.177.024-.343c.128-1.491.599-3.153.81-3.963.208-.076.717-.128 1.45-.159a55 55 0 0 1 3.517-.01q.608.016 1.263.038c1.942.069 4.133.204 6.275.412.156.017.312.03.467.048a60 60 0 0 1 4.638.637c.28.048.558.1.82.16a21 21 0 0 1 1.994.494s.07 1.585-.069 2.835a6 6 0 0 1-.059.446c-.211 1.28-.81 3.07-.81 3.07s-.98.692-2.623 1.444c-1.516.692-3.6 1.433-6.005 1.716q-.77.098-1.582.118c-.713.024-1.447 0-2.198-.08a21.4 21.4 0 0 1-3.32-.609q-.524-.136-.975-.294a11 11 0 0 1-2.23-1.018 6.6 6.6 0 0 1-1.069-.785c-.11-.097-.19-.177-.249-.236-.155-1.315-.149-2.772-.069-3.921m5.396 15.305c-.17.471.318.692.485.782 1.221.669 2.692.907 4.035.966 1.485.07 2.86-.073 4.313-.37 4.51-.924 6.6-3.963 10.868-5.683.26-.104.533-.212.716-.423.184-.207.308-.941-.121-1.284m2.045-19.008c-2.388 1.502-3.44 4.42-4.053 7.178-.463 2.104-.768 4.299-.353 6.417.198 1.003.682 2.1 1.662 2.398 1.156.35 2.807-.996 3.354-2.076m-3.157-17.32a17.8 17.8 0 0 0-5.863 9.629"/><path stroke="#002140" stroke-linecap="round" stroke-linejoin="round" stroke-width=".65" d="M29.177 30.797a25.1 25.1 0 0 0-.103 8.296m3.142-29.679c-3.824 3.087-6.379 7.296-7.424 12.1M23.186 32.87a24.8 24.8 0 0 0 .599 8.428m.737-32.005-.014.01c-3.945 3.095-5.731 6.888-7.258 11.664a.233.233 0 0 0 .17-.297m-1.423 11.349c-.149 3.416.097 5.614.9 8.68.01.045.035.093.07.114q.019.01.045.01c.062-.003.03-.13-.01-.086"/></g><defs><clipPath id="a"><path fill="#fff" d="M0 0h52v52H0z"/></clipPath></defs></svg>
